X: 11503
T: Eddie Kelly's
R: reel
M: 4/4
K: Dminor
dc|:AGEC D3C|G,A,~A,2 DEFD|EFFE FADF|Adfe Addc|
AGEC A,3=B,|CB,CD E2Ac|dfed cGAc|1 BAGE FDdc:|2 BAGE FDdD||
|:dfec Adde|fAdf egce|fAd^c defd|egge edce|
fAd^c defd|ggag gedf|ecc=B ~c3d|1 =B/_B/AGE FDdD:|2 =B/_B/AGE FDdc||

